build/images/SVG/1/eight.svg

<!-- Generated by IcoMoon.io -->
<svg version="1.1" xmlns="http://www.w3.org/2000/svg" width="32" height="32" viewBox="0 0 32 32">
<title>eight</title>
<path fill="#e3e5e4" d="M17.573 15.065v-0.053c1.425-0.677 1.906-1.728 1.906-2.707 0-1.443-1.122-2.85-3.366-2.85-2.030 0-3.58 1.247-3.58 3.081 0 0.998 0.552 1.995 1.834 2.6l0.018 0.053c-1.425 0.605-2.297 1.639-2.297 3.099 0 1.692 1.46 3.135 3.883 3.135 2.209 0 3.936-1.354 3.936-3.366-0-1.407-0.891-2.423-2.333-2.992zM14.011 12.429c0-0.998 0.712-1.852 2.012-1.852 1.407 0 1.959 0.962 1.959 1.888 0 1.051-0.766 1.763-1.763 2.101-1.336-0.356-2.208-0.98-2.208-2.137zM16.006 20.284c-1.478 0-2.369-1.033-2.315-2.209 0-1.104 0.73-1.995 2.084-2.387 1.567 0.445 2.547 1.122 2.547 2.529 0 1.193-0.909 2.066-2.315 2.066z"></path>
<path fill="#e3e5e4" d="M15.996 0c-8.82 0-15.996 7.177-15.996 15.999s7.176 16.001 15.996 16.001c8.821 0 15.998-7.178 15.998-16.001s-7.177-15.999-15.999-15.999zM15.996 31.028c-8.285 0-15.024-6.742-15.024-15.029s6.74-15.027 15.024-15.027c8.285 0 15.026 6.741 15.026 15.027s-6.741 15.029-15.026 15.029z"></path>
</svg>

<svg xmlns="http://www.w3.org/2000/svg" width="32" height="32" viewBox="0 0 32 32"><title>eight</title><path fill="#e3e5e4" d="M17.573 15.065v-.053c1.425-.677 1.906-1.728 1.906-2.707 0-1.443-1.122-2.85-3.366-2.85-2.03 0-3.58 1.247-3.58 3.081 0 .998.552 1.995 1.834 2.6l.018.053c-1.425.605-2.297 1.639-2.297 3.099 0 1.692 1.46 3.135 3.883 3.135 2.209 0 3.936-1.354 3.936-3.366 0-1.407-.891-2.423-2.333-2.992zm-3.562-2.636c0-.998.712-1.852 2.012-1.852 1.407 0 1.959.962 1.959 1.888 0 1.051-.766 1.763-1.763 2.101-1.336-.356-2.208-.98-2.208-2.137zm1.995 7.855c-1.478 0-2.369-1.033-2.315-2.209 0-1.104.73-1.995 2.084-2.387 1.567.445 2.547 1.122 2.547 2.529 0 1.193-.909 2.066-2.315 2.066z"/><path fill="#e3e5e4" d="M15.996 0C7.176 0 0 7.177 0 15.999S7.176 32 15.996 32c8.821 0 15.998-7.178 15.998-16.001S24.817 0 15.995 0zm0 31.028C7.711 31.028.972 24.286.972 15.999S7.712.972 15.996.972c8.285 0 15.026 6.741 15.026 15.027s-6.741 15.029-15.026 15.029z"/></svg>
